icons/BatteryHorizontalElectricity_filled.svg

<svg width="24" height="24" viewBox="0 0 24 24" fill="none" xmlns="http://www.w3.org/2000/svg">
<path fill-rule="evenodd" clip-rule="evenodd" d="M5.5,6.25004h3.81251l-2.9625,3.94996c-0.53374,0.7116 -0.72414,1.6234 -0.51977,2.4892c0.17586,0.745 0.62841,1.3898 1.2582,1.8087l-0.18449,0.5534c-0.31305,0.9391 -0.13676,1.9378 0.40906,2.6987h-1.81301c-1.51878,0 -2.75,-1.2312 -2.75,-2.75v-5.99996c0,-1.51878 1.23122,-2.75 2.75,-2.75zM16,17.75h-3.8125l2.9625,-3.95c0.5337,-0.7117 0.7241,-1.6235 0.5197,-2.4893c-0.1758,-0.7449 -0.6284,-1.38969 -1.2581,-1.80856l0.1844,-0.55339c0.3131,-0.93914 0.1368,-1.93778 -0.409,-2.69871h1.813c1.5188,0 2.75,1.23122 2.75,2.75v5.99996c0,1.5188 -1.2312,2.75 -2.75,2.75zM21.5,14.25c0,0.4143 -0.3358,0.75 -0.75,0.75c-0.4142,0 -0.75,-0.3357 -0.75,-0.75v-4.49996c0,-0.41422 0.3358,-0.75 0.75,-0.75c0.4142,0 0.75,0.33578 0.75,0.75zM12.0981,7.33566c0.3258,0.17072 0.4797,0.55255 0.3634,0.90151l-0.7943,2.38293l1.4182,0.709c0.1989,0.0995 0.3434,0.2821 0.3945,0.4985c0.0511,0.2165 0.0035,0.4444 -0.1299,0.6223l-3,4.0001c-0.2207,0.2943 -0.62225,0.3851 -0.94808,0.2143c-0.32583,-0.1707 -0.47976,-0.5525 -0.36343,-0.9015l0.7943,-2.3828l-1.41821,-0.7092c-0.19891,-0.0994 -0.34343,-0.2821 -0.39452,-0.4985c-0.05109,-0.2164 -0.0035,-0.4444 0.12994,-0.6223l3,-4c0.2207,-0.29427 0.6223,-0.38505 0.9481,-0.21434z" fill="#002B51"/>
</svg>

<svg width="24" height="24" viewBox="0 0 24 24" fill="none" xmlns="http://www.w3.org/2000/svg">
<path fill-rule="evenodd" clip-rule="evenodd" d="M5.5 6.25004H9.31251L6.35001 10.2C5.81627 10.9116 5.62587 11.8234 5.83024 12.6892C6.0061 13.4342 6.45865 14.079 7.08844 14.4979L6.90395 15.0513C6.5909 15.9904 6.76719 16.9891 7.31301 17.75H5.5C3.98122 17.75 2.75 16.5188 2.75 15V9.00004C2.75 7.48126 3.98122 6.25004 5.5 6.25004ZM16 17.75H12.1875L15.15 13.8C15.6837 13.0883 15.8741 12.1765 15.6697 11.3107C15.4939 10.5658 15.0413 9.92101 14.4116 9.50214L14.596 8.94875C14.9091 8.00961 14.7328 7.01097 14.187 6.25004H16C17.5188 6.25004 18.75 7.48126 18.75 9.00004V15C18.75 16.5188 17.5188 17.75 16 17.75ZM21.5 9.75004C21.5 9.33582 21.1642 9.00004 20.75 9.00004C20.3358 9.00004 20 9.33582 20 9.75004V14.25C20 14.6643 20.3358 15 20.75 15C21.1642 15 21.5 14.6643 21.5 14.25V9.75004ZM12.0981 7.33566C12.4239 7.50638 12.5778 7.88821 12.4615 8.23717L11.6672 10.6201L13.0854 11.3291C13.2843 11.4286 13.4288 11.6112 13.4799 11.8276C13.531 12.0441 13.4834 12.272 13.35 12.4499L10.35 16.45C10.1293 16.7443 9.72775 16.8351 9.40192 16.6643C9.07609 16.4936 8.92216 16.1118 9.03849 15.7628L9.83279 13.38L8.41458 12.6708C8.21567 12.5714 8.07115 12.3887 8.02006 12.1723C7.96897 11.9559 8.01656 11.7279 8.15 11.55L11.15 7.55C11.3707 7.25573 11.7723 7.16495 12.0981 7.33566Z" fill="#002B51"/>
</svg>
